!!!!SEGMENT: pl-wtm--r-1226--011_lodwigowski-edward-stefan-moj-tatulo-mawial-sobie.krn
!!!id: 18xx:1927
!!!COM: Łodwigowski, Edward Stefan
!!!OTL: Mój tatulo mawiał sobie
!!!PDT:
!!!SMS-siglum: PL-Wtm
!!!SMS-shelfmark: R 1226
!!!NIFC-rismID: 1001083995
!!!URL-scan: http://repozytorium.nifc.pl/skany/pl-wtm-nut--r1226-1227
!!!ONB-nifc: UWAGA: No. 59
!!!SMS-variant:
!!!SMS-altvar:
!!!OMD: Andantino.
**kern	**fing	**kern	**fing	**dynam
*part1	*part1	*part1	*part1	*part1
*staff2	*staff2	*staff1	*staff1	*
*I"Fortepian	*	*I"Fortepian	*	*
*clefF4	*	*clefG2	*	*
*k[]	*	*k[]	*	*
*M2/4	*	*M2/4	*	*
*all\right	*	*all\right	*	*
!	!	!LO:TX:i:t=Mój tatulo mawiał sobie. J. Elsnera.	!	!
!	!	!LO:TX:Bi:t=No 59.	!	!
4r	.	8ee'\L	5	p
.	.	8ee'\J	.	.
=1	=1	=1	=1	=1
*^	*	*	*	*
*	*	*below	*	*	*
4E/	16E\LL	.	(8ee\L	5	.
.	16B\	.	.	.	.
.	16G#X\	.	8dd\	.	.
.	16B\JJ	.	.	.	.
4E/	16E\LL	.	8cc\	.	.
.	16B\	.	.	.	.
.	16G#\	.	8b\J)	.	.
.	16B\JJ	.	.	.	.
=2	=2	=2	=2	=2	=2
4E/	16E\LL	.	8cc'\L	.	.
.	16c\	.	.	.	.
.	16A\	.	8cc'\	.	.
.	16c\JJ	.	.	.	.
4E/	16E\LL	.	(8cc\	.	.
.	16c\	.	.	.	.
.	16A\	.	8a\J)	.	.
.	16c\JJ	.	.	.	.
=3	=3	=3	=3	=3	=3
4E/	16E\LL	.	8ee'\L	.	.
.	16c\	.	.	.	.
.	16A\	.	8ee'\	.	.
.	16c\JJ	.	.	.	.
4E/	16E\LL	.	(8ee\	.	.
.	16c\	.	.	.	.
.	16A\	.	8cc\J)	.	.
.	16c\JJ	.	.	.	.
=4	=4	=4	=4	=4	=4
4E/	16E\LL	.	8b'\L	.	.
.	16B\	.	.	.	.
.	16G#X\	.	8b'\	.	.
.	16B\JJ	.	.	.	.
4E/	16E\LL	.	(8ee\	.	.
.	16B\	.	.	.	.
.	16G#\	.	8dd\J)	.	.
.	16B\JJ	.	.	.	.
=5	=5	=5	=5	=5	=5
4A/	16A\LL	4	(8cc\L	.	.
.	16e\	.	.	.	.
.	16c\	.	8b\)	.	.
.	16e\JJ	.	.	.	.
4A/	16A\LL	.	8a\	.	.
.	16e\	.	.	.	.
.	16c\	.	8a\J	.	.
.	16e\JJ	.	.	.	.
!!LO:LB:g=original
=6	=6	=6	=6	=6	=6
4F/	16F\LL	.	8a'/L	.	.
.	16d\	.	.	.	.
.	16A\	.	8a'/J	.	.
.	16d\JJ	.	.	.	.
4F/	16F\LL	.	(16ff\LL	4	.
.	16d\	.	16ee\	.	.
.	16A\	.	16dd\	.	.
.	16d\JJ	.	16cc\JJ)	.	.
=7	=7	=7	=7	=7	=7
4G/	16G\LL	.	(8b/L	3	.
.	16f\	.	.	.	.
.	16d\	.	8g/J)	1	.
.	16f\JJ	.	.	.	.
4G/	16G\LL	.	8g/LSSs<	3	.
.	16f\	.	.	.	<
.	16d\	.	16a/L	.	.
.	16f\JJ	.	16b/JJ	.	[[
=8	=8	=8	=8	=8	=8
4c/	16c\LL	.	(8dd\L	.	.
.	16g\	.	.	.	.
.	16e\	.	8cc|\J)	.	.
.	16g\JJ	.	.	.	.
8c/	8c\	.	8ee'\L	3	>
8r	8ryy	.	8ee'\J	4	]]
=9	=9	=9	=9	=9	=9
4E/	16E\LL	.	(8ee\L	5	.
.	16B\	.	.	.	.
.	16G#X\	.	8dd\	.	.
.	16B\JJ	.	.	.	.
4E/	16E\LL	.	8cc\	.	.
.	16c\	.	.	.	.
.	16A\	.	8a\J)	.	.
.	16c\JJ	.	.	.	.
=10	=10	=10	=10	=10	=10
4E/	16E\LL	.	8b\L	.	.
.	16B\	.	.	.	.
.	16G#X\	.	8b\J	.	.
.	16B\JJ	.	.	.	.
4E/	16E\LL	.	8ee\L	.	.
.	16B\	.	.	.	.
.	16G#\	.	8ee\J	.	.
.	16B\JJ	.	.	.	.
=11	=11	=11	=11	=11	=11
4E/	16E\LL	.	(8ee\L	.	.
.	16B\	.	.	.	.
.	16G#X\	.	8dd\	.	.
.	16B\JJ	.	.	.	.
4E/	16E\LL	.	8cc\	.	.
.	16c\	.	.	.	.
.	16A\	.	8a\J)	.	.
.	16c\JJ	.	.	.	.
!!LO:LB:g=original
=12	=12	=12	=12	=12	=12
4E/	16E\LL	.	8b\L	.	.
.	16d\	.	.	.	.
.	16G#X\	.	8b\	.	.
.	16d\JJ	.	.	.	.
4E/	16E\LL	.	8b\	.	.
.	16d\	.	.	.	.
.	16G#\	.	8b\J	.	.
.	16d\JJ	.	.	.	.
=13	=13	=13	=13	=13	=13
4F/	16F\LL	4	8a\L	.	.
.	16c\	.	.	.	.
.	16A\	.	8a\J	.	.
.	16c\JJ	.	.	.	.
4F/	16F\LL	5	(8cc\L	.	.
.	16d#X\	.	.	.	.
.	16A\	.	16b\L	.	.
.	16d#\JJ	.	16a\JJ	.	.
=14	=14	=14	=14	=14	=14
4ryy	8E|\L	.	8bL 8g#X|\)	2 3	.
.	[8e;>\J	.	[8bJ [8g#;\	.	.
[4e/	16e\LL]	.	8b]L 8g#\]	.	.
.	16d\	.	.	.	.
.	16c\	.	16cc\L	1	.
.	16B\JJ	.	16ee\JJ	.	.
=15	=15	=15	=15	=15	=15
2e/_	8A\L	.	8eeL 8cc\	.	.
.	8B\	.	8dd 8b\	2 4	.
.	8c\	.	8cc 8a\	1 3	.
.	8d\J	.	8bJ 8g#X\	2 4	.
=16	=16	=16	=16	=16	=16
4e/]	8c\L	.	8ccL 8a\	1 3	.
.	8A\J	.	8cc 8a\	.	.
4ryy	8d\L	.	8ff 8b 8a\	5	.
.	8D\J	.	8ffJ 8b 8a\	.	.
=17	=17	=17	=17	=17	=17
*	*	*	*^	*^	*
4ryy	4E\	.	8ee/L	4b 4g#X\	5	1	.
.	.	.	8dd/	.	.	.	.
[4e/	8e\L	.	8cc/	8a\L	.	.	.
.	8d\J	.	8b/J	8g#\J	2 4	.	.
*	*	*	*	*	*v	*v	*
=18	=18	=18	=18	=18	=18	=18
8e/L]	8c\L	.	8a'/L	8a\L	.	.
8e'/J	8A\ 8cJ	.	8a'/J	8a\J	.	.
*v	*v	*	*	*	*	*
*	*	*v	*v	*	*
==	==	==	==	==
*-	*-	*-	*-	*-
!!!system-decoration: {p1}
!!!RDF**kern: > = above
!!!RDF**kern: < = below
!!!RDF**kern: | = vertical stroke
!!!ENC: Andrzej Gręziak
!!!END: 2021-04-17
!!!ENC: Andrzej Kubiczek
!!!END: 2021-05-02
